X: 11
T: The Lark In The Morning
R: jig
M: 6/8
L: 1/8
K: Cmaj
|:G3 GEG|A3 AcA|G3 GEG|efd ecA|
G3 GEG|A3 AGA|cde ged|ecA AGA:|
|:cde g3| age ged|cde ged|ecA AcA|
cde g3|age g2e|f3 e3|dcA AGA:|
|:c2e ede|ede ede|c2e ede|dcA AGA|
c2e ede|ede cde|f2d e2c|dcA AcA:|
|:Gcc ecc|dcc ecA|Gcc ecc|dcA AGA|
Gcc ecc|dcA cde| f2d e2c|dcA AcA:|


Tune 62	Setting 21301

